X:1
T:BWV 0790
T:Sinfonia 4
T:Johann Sebastian Bach
%%score { ( 1 3 ) | 2 }
L:1/8
Q:1/4=96
M:4/4
K:F
V:1 treble nm="Harp"
V:3 treble 
V:2 bass 
V:1
"^Andante" z/ d/^c/d/ Af- f/e/d/e/ Ag- | g/f/e/d/ a2- a/^g/^f/g/ e>a | %2
 a2- a/d/^c/d/ =g2- =g/c/=B/c/ | f3 a g2- g/f/e/f/ | d2 z/ b/a/b/ e2- e/a/g/a/ | %5
 d2- d/d/e/f/ g2- g/f/e/d/ | c4- c/B/A/B/ G/d/c/d/ | G/B/A/B/- B/c/B/c/ A2 z f- | %8
 f<e z g- g/f/e/f/ ca- | a/g/f/g/ cb- b<a- a2- | a/d/^c/d/ g2- g/f/e/g/ f2- | %11
 f/e/d/e/ Ad- d/c/=B/c/ ^FB- | B/A/^G/A/- A/G/^F/G/ z/ A/G/A/ Ec- | c/=B/A/B/ Ed- d/c/B/c/ _e2- | %14
 e<d z ^f g4- | g/^f/b/a/ f2 g/d/c/d/ G=f- | f/e/d/e/ cb- b/a/g/b/ a/g/f/e/ | %17
 d2- d/f/e/d/ ^c2- c/A/d/=c/ | B4- B/A/^G/=B/ A/=G/F/G/ | F2- F/A/G/A/ B=Bc^c | d4- d3 d | %21
 ^c=c =B_B A2 ^G=G | ^F=F E2 D4 |] %23
V:2
 D,E,F,D, A,=B,^CA, | D2- D/C/=B,/A,/ E2 E,2 | A,,2 z2 z4 | %3
 z/ D,/^C,/D,/ A,,F,- F,/E,/D,/E,/ A,,G,- | G,/F,/E,/D,/ B,2- B,/E,/D,/C,/ A,2- | %5
 A,/D,/C,/D,/ G,,F,- F,/E,/D,/E,/ C,B, | B,/A,/G,/A,/ F,_E DCB,A, | B,G, CC, F,,G,,A,,F,, | %8
 C,D,E,C, F,G,A,F, | CDEC F/C/B,/C/ F,F- | F/B,/A,/B,/ E,E- E/A,/G,/A,/ D,D- | %11
 DC- C/=B,/A,/B,/ ^G,A,- A,/G,/^F,/G,/ | A,^D, E,E,, A,,=B,, C,A,, | %13
 E,^F,^G,E, A,2- A,/=G,/F,/G,/ | D,C, B,,A,, G,,/G,/^F,/G,/ D,B,- | %15
 B,/A,/G,/A,/ D,C- C/B,/A,/B,/ C/B,/A,/G,/ | CDEC F,2 z F, | B,A,G,B, A,G,F,D, | %18
 G,F,G,E, A,=B, ^CA, | D/D,/^C,/D,/ A,,F,- F,/E,/D,/E,/ A,,G,- | %20
 G,/^F,/E,/F,/ D,C B,A, B,/A,/G,/A,/ | G,/^F,/E,/F,/ G,/=F,/_E,/D,/ ^C,D,- D,/C,/=B,,/C,/ | %22
 D,^G,, A,,2 !fermata!D,,4 |] %23
V:3
 x8 | z/ A/^G/A/ Ec- c/=B/A/B/ Ed | d/c/=B/c/ f2- f/B/A/B/ e2- | %3
 eA d/e/d/=c/ =B>^c d/4c/4d/4c/4d/4c/4d/4c/4 | d/d/^c/d/ G2- G/=c/B/c/ F2- | %5
 F/B/A/c/ B2- B/c/B/A/ B/A/G/F/ | EB- B/A/G/A/ F4- | F2 E2 z/ F/E/F/ CA- | A/G/F/G/ CB- B<A z f- | %9
 f<e z g- g<f- f/e/d/c/ | B2- B/A/B/G/ ^c2 d/B/A/B/ | ^GA^F=F E2 ^D=D | ^C=C =B,2 A,2 z2 | %13
 z4 z/ E/^D/E/ A,G- | G/^F/=E/F/ Dc- c/B/A/B/ c/d/c/d/ | _e2- e/d/e/c/ d/ z/ z z2 | %16
 z4 z/ F/E/F/[I:staff +1] C[I:staff -1]A- | %17
 A/G/F/G/[I:staff +1] B,[I:staff -1]G- G/F/E/F/[I:staff +1] A,[I:staff -1]F- | %18
 F/E/D/F/ _E/D/^C/D/ CD =E2- | EA, D2 D/G/F/G/ E/_B/A/G/ | A/D/c- c/B/A/B/ A/G/^F/G/ DB- | %21
 B/A/G/A/ DG- G/F/E/F/ =B,E- | E/D/^C/D/- D/C/=B,/C/ !fermata!D4 |] %23

